icons/eco_care_fill.svg

<svg width="48" height="48" viewBox="0 0 48 48" fill="none" xmlns="http://www.w3.org/2000/svg">
<path d="M24.4327 28.2786L22.5658 27.5719C23.0662 26.2514 23.9164 24.8203 25.2567 23.331L26.7433 24.669C25.5602 25.9836 24.842 27.1986 24.4327 28.2786Z" fill="black"/>
<path fill-rule="evenodd" clip-rule="evenodd" d="M15.5625 7C10.0359 7 6 12.6409 6 18.7241C6 32.3045 24 41 24 41C24 41 42 31.7444 42 18.7241C42 12.6419 37.9647 7 32.4375 7C28.6022 7 25.7565 9.53111 24 13.1211C22.2434 9.53088 19.3976 7 15.5625 7ZM17 24.9585C17 27.7661 20.1423 28.6621 22.4412 27.9165C21.3434 31.167 22.363 33.7002 23.2712 34.6799L24.7379 33.3201C24.374 32.9276 23.538 31.3061 24.2291 28.8985C25.436 31.1352 31 31.4169 31 27.1982V16C28.1178 18.4388 25.039 19.4029 22.5046 20.1966C19.3234 21.1928 17 21.9204 17 24.9585Z" fill="black"/>
</svg>

<svg
  xmlns="http://www.w3.org/2000/svg"
  width="24"
  height="24"
  viewBox="0 0 24 24"
  fill="none"
  stroke="currentColor"
  stroke-width="2"
  stroke-linecap="round"
  stroke-linejoin="round"
>
  <path d="m24.433 28.279-1.867-.707c.5-1.32 1.35-2.752 2.69-4.241l1.487 1.338c-1.183 1.315-1.901 2.53-2.31 3.61" />
  <path
    fill-rule="evenodd"
    d="M15.563 7C10.035 7 6 12.64 6 18.724 6 32.304 24 41 24 41s18-9.256 18-22.276C42 12.642 37.965 7 32.438 7 28.602 7 25.755 9.531 24 13.121 22.243 9.531 19.398 7 15.563 7M17 24.959c0 2.807 3.142 3.703 5.441 2.957-1.098 3.251-.078 5.784.83 6.764l1.467-1.36c-.364-.392-1.2-2.014-.509-4.422 1.207 2.237 6.771 2.519 6.771-1.7V16c-2.882 2.439-5.961 3.403-8.495 4.197C19.323 21.193 17 21.92 17 24.959"
    clip-rule="evenodd"
  />
</svg>
